img/coins.svg

<?xml version="1.0" encoding="UTF-8"?>
<svg width="97px" height="65px" viewBox="0 0 97 65" version="1.1" xmlns="http://www.w3.org/2000/svg" xmlns:xlink="http://www.w3.org/1999/xlink">
    <!-- Generator: Sketch 49.3 (51167) - http://www.bohemiancoding.com/sketch -->
    <title>Page 1</title>
    <desc>Created with Sketch.</desc>
    <defs></defs>
    <g id="Page-1" stroke="none" stroke-width="1" fill="none" fill-rule="evenodd">
        <g transform="translate(0.000000, 1.000000)">
            <path d="M48.0168,0.0001 C22.0048,0.0261 0.9538,11.8571 0.9998,26.4271 L0.9998,37.7841 C1.0998,50.1571 22.1708,62.1441 48.1838,62.1181 C74.1698,62.0921 95.0998,50.1571 95.1998,37.7371 L95.2008,26.3331 C95.1538,11.7641 74.0298,-0.0259 48.0168,0.0001" id="Fill-1" fill="#E69C00"></path>
            <path d="M48.0168,0.0001 C22.0048,0.0261 0.9538,11.8571 0.9998,26.4271 L0.9998,37.7841 C1.0998,50.1571 22.1708,62.1441 48.1838,62.1181 C74.1698,62.0921 95.0998,50.1571 95.1998,37.7371 L95.2008,26.3331 C95.1538,11.7641 74.0298,-0.0259 48.0168,0.0001 Z" id="Stroke-3" stroke="#CD7D00" stroke-width="2"></path>
            <path d="M95.2009,26.3336 C95.2469,40.9036 74.1959,52.7356 48.1839,52.7606 C22.1709,52.7866 1.0459,40.9966 0.9999,26.4276 C0.9539,11.8576 22.0039,0.0256 48.0169,0.0006 C74.0299,-0.0254 95.1539,11.7646 95.2009,26.3336" id="Fill-5" fill="#FFDF7A"></path>
            <path d="M95.2009,26.3336 C95.2469,40.9036 74.1959,52.7356 48.1839,52.7606 C22.1709,52.7866 1.0459,40.9966 0.9999,26.4276 C0.9539,11.8576 22.0039,0.0256 48.0169,0.0006 C74.0299,-0.0254 95.1539,11.7646 95.2009,26.3336 Z" id="Stroke-7" stroke="#CD7D00" stroke-width="2"></path>
            <path d="M85.6657,26.3468 C85.7027,36.9368 68.9137,45.5378 48.1667,45.5568 C27.4197,45.5758 10.5717,37.0048 10.5347,26.4148 C10.4977,15.8238 27.2867,7.2228 48.0337,7.2048 C68.7807,7.1858 85.6297,15.7558 85.6657,26.3468" id="Fill-9" fill="#FFBC0B"></path>
            <path d="M38.6486,35.4147 C38.5466,35.4837 38.4116,35.5267 38.2626,35.5267 L31.1736,35.5267 C30.8576,35.5267 30.6026,35.3347 30.6026,35.0987 C30.6026,34.9807 30.6656,34.8737 30.7696,34.7967 L43.1906,26.7077 C43.3156,26.6287 43.3946,26.5117 43.3946,26.3797 C43.3946,26.2557 43.3236,26.1437 43.2106,26.0657 L30.8046,17.9887 C30.6806,17.9107 30.6026,17.7927 30.6026,17.6627 C30.6026,17.4257 30.8576,17.2337 31.1736,17.2337 L38.2626,17.2337 C38.4116,17.2337 38.5476,17.2767 38.6496,17.3477 L52.0226,26.0577 C52.1436,26.1357 52.2196,26.2507 52.2196,26.3797 C52.2196,26.5097 52.1436,26.6257 52.0216,26.7047 L38.6486,35.4147 Z M57.5466,35.4037 L50.6696,30.9247 C50.5436,30.8457 50.4646,30.7277 50.4646,30.5967 C50.4646,30.4857 50.5216,30.3847 50.6126,30.3087 L54.1526,28.0037 C54.2576,27.9177 54.4086,27.8637 54.5766,27.8637 C54.7336,27.8637 54.8776,27.9117 54.9816,27.9887 L65.3736,34.7587 C65.5106,34.8367 65.5986,34.9597 65.5986,35.0987 C65.5986,35.3347 65.3426,35.5267 65.0266,35.5267 L57.9466,35.5267 C57.7916,35.5267 57.6496,35.4797 57.5466,35.4037 Z M57.5466,17.3567 C57.6496,17.2807 57.7916,17.2337 57.9466,17.2337 L65.0266,17.2337 C65.3426,17.2337 65.5986,17.4257 65.5986,17.6627 C65.5986,17.8007 65.5106,17.9247 65.3736,18.0027 L54.9816,24.7727 C54.8776,24.8497 54.7336,24.8977 54.5766,24.8977 C54.4086,24.8977 54.2576,24.8437 54.1526,24.7577 L50.6126,22.4527 C50.5216,22.3757 50.4646,22.2747 50.4646,22.1647 C50.4646,22.0337 50.5436,21.9157 50.6696,21.8367 L57.5466,17.3567 Z" id="Fill-11" fill="#FFDF7A"></path>
            <path d="M1.0002,33.6574 L1.1002,38.1574 C1.1002,38.1574 1.6712,46.8324 9.8862,51.4944 C10.1002,51.1574 9.8862,41.7964 9.8862,41.7964 C9.8862,41.7964 0.9002,35.9604 1.0002,31.0584" id="Fill-13" fill="#CD7D00" opacity="0.616677989"></path>
            <path d="M94.9987,33.6574 L94.8977,38.1574 C94.8977,38.1574 94.3267,46.8324 86.1127,51.4944 C85.8977,51.1574 86.1127,41.7964 86.1127,41.7964 C86.1127,41.7964 95.0987,35.9604 94.9987,31.0584" id="Fill-15" fill="#CD7D00" opacity="0.340919384"></path>
        </g>
    </g>
</svg>

<?xml version="1.0" encoding="utf-8"?>
<!-- Generator: Adobe Illustrator 22.1.0, SVG Export Plug-In . SVG Version: 6.00 Build 0)  -->
<svg version="1.1" id="Layer_1" xmlns="http://www.w3.org/2000/svg" xmlns:xlink="http://www.w3.org/1999/xlink" x="0px" y="0px"
	 viewBox="0 0 97 65" style="enable-background:new 0 0 97 65;" xml:space="preserve">
<style type="text/css">
	.st0{fill:#E69C00;}
	.st1{fill:#FFBC0B;stroke:#CD7D00;stroke-width:2;stroke-miterlimit:10;}
	.st2{fill:#FFDF7A;}
	.st3{fill:none;stroke:#CD7D00;stroke-width:2;}
	.st4{fill:#FFBC0B;}
	.st5{opacity:0.4;fill:#CD7D00;enable-background:new    ;}
	.st6{opacity:0.2;fill:#CD7D00;enable-background:new    ;}
</style>
<title>Page 1</title>
<desc>Created with Sketch.</desc>
<g id="Page-1">
	<g transform="translate(0.000000, 1.000000)">
		<path id="Fill-1" class="st0" d="M48,0C22,0,1,11.9,1,26.4v11.4c0.1,12.4,21.2,24.4,47.2,24.3c26,0,46.9-12,47-24.4l0-11.4
			C95.2,11.8,74,0,48,0"/>
		<path id="Stroke-3" class="st1" d="M48,0C22,0,1,11.9,1,26.4v11.4c0.1,12.4,21.2,24.4,47.2,24.3c26,0,46.9-12,47-24.4l0-11.4
			C95.2,11.8,74,0,48,0z"/>
		<path id="Fill-5" class="st2" d="M95.2,26.3c0,14.6-21,26.4-47,26.4C22.2,52.8,1,41,1,26.4C1,11.9,22,0,48,0
			C74,0,95.2,11.8,95.2,26.3"/>
		<path id="Stroke-7" class="st3" d="M95.2,26.3c0,14.6-21,26.4-47,26.4C22.2,52.8,1,41,1,26.4C1,11.9,22,0,48,0
			C74,0,95.2,11.8,95.2,26.3z"/>
		<path id="Fill-9" class="st4" d="M85.7,26.3c0,10.6-16.8,19.2-37.5,19.2S10.6,37,10.5,26.4C10.5,15.8,27.3,7.2,48,7.2
			C68.8,7.2,85.6,15.8,85.7,26.3"/>
		<path id="Fill-11" class="st2" d="M38.6,35.4c-0.1,0.1-0.2,0.1-0.4,0.1h-7.1c-0.3,0-0.6-0.2-0.6-0.4c0-0.1,0.1-0.2,0.2-0.3
			l12.4-8.1c0.1-0.1,0.2-0.2,0.2-0.3c0-0.1-0.1-0.2-0.2-0.3L30.8,18c-0.1-0.1-0.2-0.2-0.2-0.3c0-0.2,0.3-0.4,0.6-0.4h7.1
			c0.1,0,0.3,0,0.4,0.1L52,26.1c0.1,0.1,0.2,0.2,0.2,0.3c0,0.1-0.1,0.2-0.2,0.3L38.6,35.4z M57.5,35.4l-6.9-4.5
			c-0.1-0.1-0.2-0.2-0.2-0.3c0-0.1,0.1-0.2,0.1-0.3l3.5-2.3c0.1-0.1,0.3-0.1,0.4-0.1c0.2,0,0.3,0,0.4,0.1l10.4,6.8
			c0.1,0.1,0.2,0.2,0.2,0.3c0,0.2-0.3,0.4-0.6,0.4h-7.1C57.8,35.5,57.6,35.5,57.5,35.4z M57.5,17.4c0.1-0.1,0.2-0.1,0.4-0.1H65
			c0.3,0,0.6,0.2,0.6,0.4c0,0.1-0.1,0.3-0.2,0.3L55,24.8c-0.1,0.1-0.2,0.1-0.4,0.1c-0.2,0-0.3-0.1-0.4-0.1l-3.5-2.3
			c-0.1-0.1-0.1-0.2-0.1-0.3c0-0.1,0.1-0.2,0.2-0.3L57.5,17.4z"/>
		<path id="Fill-13" class="st5" d="M1,33.7l0.1,4.5c0,0,0.6,8.7,8.8,13.3c0.2-0.3,0-9.7,0-9.7S0.9,36,1,31.1"/>
		<path id="Fill-15" class="st6" d="M95,33.7l-0.1,4.5c0,0-0.6,8.7-8.8,13.3c-0.2-0.3,0-9.7,0-9.7s9-5.8,8.9-10.7"/>
	</g>
</g>
</svg>
